app/dist/common/images/boise-cascade.svg

<svg height="18" viewBox="0 0 18 18" width="18" xmlns="http://www.w3.org/2000/svg"><path d="m0 0h18v18h-18z" fill="#f0f3fa"/><path d="m8.3 13.95v-2.15l-1.6 1.23-.7-.97 2.3-1.85v-.94l-1.6 1.23-.7-.97 2.3-1.85v-.98l-1.54 1.15-.76-.92 3-2.43 3 2.43-.63.92-1.67-1.15v.98l2.3 1.85-.7.97-1.6-1.23v.94l2.3 1.85-.7.97-1.6-1.23v2.15a5.03 5.03 0 0 0 4.3-4.93 5.06 5.06 0 0 0 -5-5.02c-2.74 0-5 2.31-5 5.02a5.03 5.03 0 0 0 4.3 4.93zm6.7-4.93a5.99 5.99 0 1 1 -11.98-.02 5.99 5.99 0 0 1 11.98.02z" fill="#43aa3f"/></svg>

<!-- by TradingView --><svg xmlns="http://www.w3.org/2000/svg" width="18" height="18" viewBox="0 0 18 18"><path fill="#F0F3FA" d="M0 0h18v18H0z"/><path d="M8.3 13.95V11.8l-1.6 1.23-.7-.97 2.3-1.85v-.94L6.7 10.5 6 9.53l2.3-1.85V6.7L6.76 7.85 6 6.93 9 4.5l3 2.43-.63.92L9.7 6.7v.98L12 9.53l-.7.97-1.6-1.23v.94l2.3 1.85-.7.97-1.6-1.23v2.15A5.03 5.03 0 0 0 14 9.02 5.06 5.06 0 0 0 9 4C6.26 4 4 6.31 4 9.02a5.03 5.03 0 0 0 4.3 4.93ZM15 9.02A5.99 5.99 0 1 1 3.02 9 5.99 5.99 0 0 1 15 9.02Z" fill="#43AA3F"/></svg>
